X: 1
T:Morning Star, The
S:Sessions in Edinburgh, Scotland
Z:Nigel Gatherer
R:Reel
M:4/4
L:1/8
K:G
B2 BA BGEF|G2 Bd efge|dBBA BGEF|GBAF G2 gf|
edBA BGEF|G2 Bd efge|dBBA BGEF|GBAF G3|]
A|Bdef g2 eg|f2 df edBA|Bdef g2 eg|fedf e3 z|
Bdef g2 eg|f2 df edBA|Bdef g2 eg|faaf gfed|]
